X:1
T:Title
%%score 1 2
L:1/8
Q:1/4=105
M:3/4
K:D
V:1 treble nm="Grand Piano, Unnamed-000"
V:2 bass nm="Choir Pad, Zion, 87.87.47"
V:1
 [FA]>[FA] [FA]2 [DF]2 | [Fd]>[FA] [GB]2 [FA]2 | [Ad]>[Ad] [Ge]>[Ge] [Fd]2 | [Ec]2 [Fd]4 | %4
w: By~Thomas~Hastings,~1830 * * *||||
 [FA]>[FA] [FA]2 [DF]2 | [Fd]>[FA] [GB]2 [FA]2 | [Ad]>[Ad] [Ge]>[Ge] [Fd]2 | [Ec]2 [Fd]4 | %8
w: ||||
 [DF]>[DF] [DF]2 D2 | [DF]>[DF] [B,E]>[B,E] [A,D]2 | [A,C]2 [A,D]4 | [FA]>[FA] [FA]2 [DF]2 | %12
w: ||||
 [DA]>[DA] [EG]>[EG] [DF]2 | [CE]2 [DF]4- | [DF]4 z2 |] %15
w: |||
V:2
 [D,D]>[D,D] [D,D]2 [D,A,]2 | [D,A,]>[D,D] [G,D]2 [D,D]2 | [F,A,]>[F,A,] [G,B,]>[G,B,] A,2 | %3
 [A,,A,]2 [D,A,]4 | [D,D]>[D,D] [D,D]2 [D,A,]2 | [D,A,]>[D,D] [G,D]2 [D,D]2 | %6
 [F,A,]>[F,A,] [G,B,]>[G,B,] A,2 | [A,,A,]2 [D,A,]4 | [D,A,]>[D,A,] [D,A,]2 [D,F,]2 | %9
 [D,A,]>[D,A,] [G,,G,]>[G,,G,] [A,,F,]2 | [A,,E,]2 [D,F,]4 | [D,D]>[D,D] [D,D]2 [D,A,]2 | %12
 [D,D]>[D,D] [G,B,]>[G,B,] A,2 | [A,,A,]2 [D,A,]4- | [D,A,]4 z2 |] %15

